X:129
T: Die Schlangenkoechin
N: Q2079T
O: Suedeuropa, Italien, Lombardei
N: Italienische Fassung der Ballade.
N: Zweite, vierte und letzte Zeile = Refrain.
R: Ballade, Mord; Reigen - Tanz, antiphonal
M: 6/8
L: 1/8
K: G
D | G2GG2A | _BA
GG2A | _BAGBAG | A2z3
^c | d2AA2_B | _B6- | B2Az2
D | G2GG2A | _BA
GG2A | _BAGBAG | A3z2
d | _e2AA_Bc | c3_B2
A | G2G_B2A | G2z3

@@@ Tune index: 1184
